packages/icons/src/SVG/note-solid.svg

<svg width="12" height="12" viewBox="0 0 12 12" fill="none" xmlns="http://www.w3.org/2000/svg">
<path fill-rule="evenodd" clip-rule="evenodd" d="M9.20711 11H1V1H11V9.20711L9.20711 11ZM7 10H8V8H10V7H7V10Z" fill="#4C505B"/>
</svg>

<!-- Generated by IcoMoon.io -->
<svg version="1.1" xmlns="http://www.w3.org/2000/svg" width="12" height="12" viewBox="0 0 12 12">
<title>note-solid</title>
<path d="M9.207 11h-8.207v-10h10v8.207l-1.793 1.793zM7 10h1v-2h2v-1h-3v3z"></path>
</svg>
